img/icon-uiboost.svg

<svg width="50" height="49" viewBox="0 0 50 49" fill="none" xmlns="http://www.w3.org/2000/svg">
<path d="M29.5192 6.86575L29.1376 6.47387L28.7463 6.85604L21.5314 13.9017L14.6043 6.65806L14.2238 6.26021L13.8289 6.64377L4.85413 15.3615L4.4614 15.743L4.84381 16.1348L14.4336 25.961L4.60734 35.5508L4.21735 35.9314L4.59704 36.3223L13.3148 45.2971L13.6964 45.69L14.0882 45.3073L21.3072 38.2576L28.3569 45.4766L28.7389 45.8677L29.1297 45.4854L48.1989 26.8292L48.5884 26.4481L48.2082 26.0577L29.5192 6.86575ZM18.265 26.5694L18.6625 26.1947L18.2879 25.7972L17.0015 24.4322L17.0015 24.4321L16.9973 24.4278L8.81229 15.9342L14.1845 10.7064L29.2622 26.3238L13.6417 41.4044L8.41459 36.0328L16.8999 27.8558L16.9021 27.8537L18.265 26.5694ZM23.8534 16.1126L29.2256 10.8848L44.3032 26.5021L28.6828 41.5828L23.4557 36.2112L31.9432 28.0321L33.306 26.7478L33.7036 26.3732L33.329 25.9756L32.0425 24.6105L32.0426 24.6105L32.0383 24.6061L23.8534 16.1126Z" fill="#737380" stroke="#737380" stroke-width="1.09245"/>
</svg>

<svg width="50" height="49" fill="none" xmlns="http://www.w3.org/2000/svg"><path d="m29.52 6.866-.382-.392-.392.382-7.215 7.046-6.927-7.244-.38-.398-.395.384-8.975 8.717-.393.382.383.392 9.59 9.826-9.827 9.59-.39.38.38.391 8.718 8.975.381.393.392-.383 7.22-7.05 7.049 7.22.382.39.39-.382L48.2 26.83l.39-.38-.38-.391-18.69-19.192ZM18.264 26.569l.398-.374-.375-.398L17 24.432l-.004-.004-8.185-8.494 5.373-5.228 15.077 15.618-15.62 15.08-5.227-5.371 8.485-8.177.002-.002 1.363-1.285Zm5.588-10.456 5.373-5.228 15.077 15.617-15.62 15.08-5.227-5.37 8.487-8.18 1.363-1.284.398-.375-.375-.397-1.287-1.366-.004-.004-8.185-8.493Z" fill="#737380" stroke="#737380" stroke-width="1.092"/></svg>
